assets/icons/emailVerifica.svg

<svg width="159" height="114" viewBox="0 0 159 114" fill="none" xmlns="http://www.w3.org/2000/svg">
<circle cx="85.5" cy="57" r="57" fill="#F3FAEB"/>
<circle cx="86" cy="57" r="47" fill="#E6F2D5"/>
<circle cx="85.5" cy="57.5" r="37.5" fill="#CEE7AF"/>
<path d="M86.2832 69.4368H69.7861V42.7511H86.2832V45.159H89.1094V39.9651C89.1094 38.3135 87.7758 37 86.1443 37H69.9651C68.3336 37 67 38.3135 67 39.9651V74.7092C67 76.3607 68.3336 77.6943 69.9651 77.6943H86.1426C87.7741 77.6943 89.1077 76.3607 89.1077 74.7092V63.2269H86.2815V69.4347L86.2832 69.4368ZM75.5574 39.1888H80.4721C80.8502 39.1888 81.1681 39.4867 81.1681 39.8849C81.1681 40.2631 80.8502 40.581 80.4721 40.581H75.5574C75.1592 40.581 74.8614 40.2631 74.8614 39.8849C74.8614 39.4867 75.1592 39.1888 75.5574 39.1888ZM80.3932 74.2127C80.3932 74.5507 80.1155 74.81 79.7758 74.81H76.3522C76.0142 74.81 75.7348 74.5523 75.7348 74.2127V72.8991C75.7348 72.5611 76.0126 72.2834 76.3522 72.2834H79.7758C80.1138 72.2834 80.3932 72.5611 80.3932 72.8991V74.2127Z" fill="#436724"/>
<path d="M102.827 47.3435H75.8653C74.3895 47.3435 73.1914 48.5416 73.1914 50.0158V58.359C73.1914 59.8348 74.3895 61.0312 75.8653 61.0312H78.7468L78.3268 64.6305C78.2247 65.5006 79.3006 65.9859 79.8863 65.3333L83.7499 61.0312H102.827C104.303 61.0312 105.499 59.8348 105.499 58.3589V50.0157C105.499 48.5382 104.301 47.3418 102.825 47.3418L102.827 47.3435ZM82.9749 55.0322C83.1589 55.1376 83.2895 55.3083 83.3447 55.5124C83.3999 55.7182 83.3714 55.9308 83.266 56.1165C83.1238 56.3608 82.8611 56.5148 82.5766 56.5148C82.4394 56.5148 82.3022 56.4763 82.18 56.4077L80.7192 55.5643V57.251C80.7192 57.6877 80.3628 58.0441 79.9261 58.0441C79.4877 58.0441 79.1329 57.6877 79.1329 57.251V55.5643L77.6721 56.4077C77.5517 56.4763 77.4144 56.5148 77.2756 56.5148C76.9928 56.5148 76.7301 56.3625 76.5878 56.1165C76.4824 55.9324 76.454 55.7183 76.5092 55.5124C76.5644 55.3083 76.6966 55.1359 76.879 55.0322L78.3381 54.1888L76.879 53.3455C76.6949 53.2384 76.5627 53.0677 76.5092 52.8619C76.454 52.6561 76.4824 52.4436 76.5878 52.2595C76.6932 52.0755 76.8639 51.9433 77.0697 51.8897C77.2739 51.8345 77.4881 51.863 77.6721 51.9701L79.1329 52.8134V51.1267C79.1329 50.6883 79.4876 50.3336 79.9261 50.3336C80.3644 50.3336 80.7192 50.6883 80.7192 51.1267V52.8117L82.18 51.9684C82.5582 51.7492 83.0451 51.878 83.2643 52.2595C83.4835 52.6377 83.353 53.1246 82.9731 53.3455L81.514 54.1889L82.9731 55.0322L82.9749 55.0322ZM92.3954 55.0322C92.5795 55.1376 92.71 55.3083 92.7652 55.5124C92.8204 55.7182 92.792 55.9308 92.6866 56.1165C92.5443 56.3608 92.2816 56.5148 91.9972 56.5148C91.86 56.5148 91.7228 56.4763 91.6006 56.4077L90.1398 55.5643V57.251C90.1398 57.6877 89.7834 58.0441 89.345 58.0441C88.9066 58.0441 88.5518 57.6877 88.5518 57.251V55.5643L87.091 56.4077C86.9705 56.4763 86.8333 56.5148 86.6944 56.5148C86.4117 56.5148 86.1473 56.3625 86.005 56.1165C85.8996 55.9324 85.8712 55.7183 85.9264 55.5124C85.9816 55.3083 86.1138 55.1359 86.2962 55.0322L87.7553 54.1888L86.2962 53.3455C86.1121 53.2384 85.9799 53.0677 85.9264 52.8619C85.8712 52.6561 85.8996 52.4436 86.005 52.2595C86.2259 51.8797 86.7128 51.7509 87.0893 51.9684L88.5501 52.8117V51.1267C88.5501 50.6883 88.9048 50.3336 89.3433 50.3336C89.78 50.3336 90.1381 50.6883 90.1381 51.1267V52.8117L91.5989 51.9684C91.9754 51.7492 92.464 51.878 92.6832 52.2595C92.9024 52.6377 92.7719 53.1246 92.392 53.3455L90.9329 54.1889L92.392 55.0322L92.3954 55.0322ZM101.814 55.0322C101.998 55.1376 102.129 55.3083 102.184 55.5124C102.239 55.7182 102.211 55.9308 102.105 56.1165C101.963 56.3608 101.7 56.5148 101.416 56.5148C101.279 56.5148 101.142 56.4763 101.019 56.4077L99.5586 55.5643V57.251C99.5586 57.6877 99.2022 58.0441 98.7655 58.0441C98.3287 58.0441 97.9723 57.6877 97.9723 57.251V55.5643L96.5115 56.4077C96.391 56.4763 96.2538 56.5148 96.115 56.5148C95.8305 56.5148 95.5678 56.3625 95.4255 56.1165C95.3201 55.9324 95.2917 55.7183 95.3452 55.5124C95.4004 55.3083 95.5326 55.1359 95.715 55.0322L97.1741 54.1888L95.715 53.3455C95.531 53.2384 95.3988 53.0677 95.3452 52.8619C95.29 52.6561 95.3185 52.4436 95.4255 52.2595C95.531 52.0755 95.7016 51.9433 95.9075 51.8897C96.1116 51.8345 96.3258 51.863 96.5098 51.9701L97.9706 52.8134V51.1284C97.9706 50.69 98.3254 50.3352 98.7638 50.3352C99.2005 50.3352 99.5569 50.69 99.5569 51.1284V52.8134L101.018 51.9701C101.396 51.7509 101.883 51.8797 102.102 52.2612C102.32 52.6394 102.191 53.1263 101.811 53.3472L100.352 54.1906L101.811 55.0339L101.814 55.0322Z" fill="#436724"/>
<circle cx="153" cy="14" r="6" fill="#56862A"/>
<circle cx="6" cy="89" r="6" fill="#56862A"/>
</svg>

<svg xmlns="http://www.w3.org/2000/svg" width="159" height="114" fill="none" viewBox="0 0 159 114"><circle cx="85.5" cy="57" r="57" fill="#f3faeb"/><circle cx="86" cy="57" r="47" fill="#e6f2d5"/><circle cx="85.5" cy="57.5" r="37.5" fill="#cee7af"/><path fill="#436724" d="M86.283 69.437H69.786V42.75h16.497v2.408h2.826v-5.194A2.96 2.96 0 0 0 86.144 37H69.965A2.96 2.96 0 0 0 67 39.965V74.71a2.977 2.977 0 0 0 2.965 2.985h16.178a2.977 2.977 0 0 0 2.965-2.985V63.227H86.28v6.208zM75.557 39.189h4.915c.378 0 .696.298.696.696a.704.704 0 0 1-.696.696h-4.915a.69.69 0 0 1-.696-.696.68.68 0 0 1 .696-.696m4.836 35.024a.603.603 0 0 1-.617.597h-3.424a.603.603 0 0 1-.617-.597v-1.314a.62.62 0 0 1 .617-.616h3.424a.62.62 0 0 1 .617.616z"/><path fill="#436724" d="M102.827 47.344H75.865a2.675 2.675 0 0 0-2.674 2.672v8.343a2.674 2.674 0 0 0 2.674 2.672h2.882l-.42 3.6c-.102.87.974 1.355 1.56.702l3.863-4.302h19.077a2.67 2.67 0 0 0 2.672-2.672v-8.343a2.674 2.674 0 0 0-2.674-2.674zm-19.852 7.688a.795.795 0 0 1-.795 1.375l-1.46-.843v1.687a.794.794 0 0 1-1.586 0v-1.687l-1.462.844a.796.796 0 0 1-1.163-.895.8.8 0 0 1 .37-.48l1.46-.844-1.46-.843a.8.8 0 0 1-.37-.484.79.79 0 0 1 .56-.972.78.78 0 0 1 .603.08l1.46.843v-1.686a.793.793 0 1 1 1.587 0v1.685l1.461-.844a.793.793 0 0 1 1.084.291.796.796 0 0 1-.29 1.087l-1.46.843 1.46.843m9.42 0a.795.795 0 0 1-.795 1.375l-1.46-.843v1.687a.795.795 0 0 1-1.588 0v-1.687l-1.461.844a.8.8 0 0 1-1.086-.291.794.794 0 0 1 .291-1.085l1.46-.843-1.46-.843a.8.8 0 0 1-.37-.484.8.8 0 0 1 .079-.602.796.796 0 0 1 1.084-.292l1.461.844v-1.685a.795.795 0 0 1 1.588 0v1.685l1.46-.844a.793.793 0 0 1 1.085.291.796.796 0 0 1-.291 1.087l-1.46.843 1.46.843zm9.419 0a.793.793 0 0 1-.398 1.483.8.8 0 0 1-.397-.107l-1.46-.844v1.687a.795.795 0 0 1-.793.793.795.795 0 0 1-.794-.793v-1.687l-1.46.844a.797.797 0 0 1-1.166-.895.8.8 0 0 1 .369-.48l1.46-.844-1.46-.843a.8.8 0 0 1-.37-.484.78.78 0 0 1 .08-.602.78.78 0 0 1 .483-.37.78.78 0 0 1 .602.08l1.46.843v-1.685a.793.793 0 1 1 1.587 0v1.685l1.461-.843a.79.79 0 0 1 1.084.291.797.797 0 0 1-.291 1.086l-1.459.844 1.459.843z"/><circle cx="153" cy="14" r="6" fill="#56862a"/><circle cx="6" cy="89" r="6" fill="#56862a"/></svg>
